X: 09088
T: PANISH JIG #2
C: Bob McQuillen 29 Mar 91
B: Bob's Note Book 9 #88
R: jig
Z: 2018 John Chambers <jc:trillian.mit.edu>
M: 6/8
L: 1/8
K: G
A \
| BAB GBd | Bdg dBd | BAB GBd | gdB AGA |
| BAB GBd | Bdg dBd | geg dBA | BGG G2 :|
|: f \
| ece efg | age dBd | ece dge | dBG AGA |
| BdB AGA | BGB dBd | geg aga | bgg g2 :|
%%begintext align
%% You don't
%% need me to tell you that Steve Panish is Paul's brother -
%% Steve is one of the fine fiddlers in that great-sounding
%% Laprey River Band from the N.H. Coastal area - I
%% hope you get to dance to them some day - you'll love it!
%%endtext

%%sep 1 1 500

%%sep 1 1 500

